X:1
T:Kind Words Can Never Die
T:Kind Words Can Never Die
T:Abby Hutchinson Patton
T:Abby Hutchinson Patton, 1851
T:Public Domain Courtesy of the Cyber Hymnal™
T:Public Domain Courtesy of the Cyber Hymnal™
C:Abby Hutchinson Patton
Z:Public Domain
Z:Courtesy of the Cyber Hymnal™
%%score ( 1 2 ) ( 3 4 )
L:1/8
Q:1/4=113
M:4/4
K:Db
V:1 treble 
V:2 treble 
V:3 bass 
V:4 bass 
V:1
 [Fd]4 [Ac]2 [GB]2 | [FA]2 [Fd]2 [DF]4 | [CA]4 [CE]2 [CA]2 | [DF]8 | [Fd]4 [Ac]2 [GB]2 | %5
w: 1.~Kind words can|ne- ver die,|Cher- ished and|blest;|God knows how|
w: 2.~Sweet thoughts can|ne- ver die,|Tho’, like the|flow’rs,|Their bright- est|
w: 3.~Our souls can|ne- ver die,|Tho’ in the|tomb|We all may|
 [FA]2 [Fd]2 [DF]4 | [DA]4 [CE]2 [CA]2 | D8 | [CE]4 [B,D]2 [CE]2 | [DF]2 [DB]2 [DA]4 | %10
w: deep they lie,|Stored in the|breast;|Like child- hood’s|sim- ple rhymes,|
w: hues may fly,|In win- try|hours.|But when the|gen- tle dew|
w: have to lie,|Wrapped in its|gloom.|What tho’ the|flesh de- cay,|
 c4 [DB]2 [CA]2 | [EA]2 [E=G]2 [EA]4 | [Fd]4 [Ac]2 [GB]2 | [FA]2 [Fd]2 [DF]4 | [GA]4 [Ge]3 [Ge] | %15
w: Said o’er a|thou- sand times,|Aye, in all|years and climes|Dist- ant and|
w: Gives them their|charms a- new,|With ma- ny|an add- ed|hue They bloom|
w: Souls pass in|peace a- way,|Live thro’ e-|ter- nal day|With Christ a-|
 [Fd]8 | [Fd]4 [Ac]2 [GB]2 | [FA]2 [Fd]2 [DF]4 | [FA]2 [EG]2 [CE]4 | [GB]2 [FA]2 [DF]4 | %20
w: near.|Kind words can|ne- ver die,|Ne- ver die,|ne- ver die;|
w: again.|Sweet thoughts can|ne- ver die,|Ne- ver die,|ne- ver die,|
w: bove.|Our souls can|ne- ver die,|Ne- ver die,|ne- ver die|
 [Fd]4 [Ac]2 [GB]2 | [FA]2 [Fd]2 [DF]4 | [EA]2 z2 [Ge] [Gc]3 | [Fd]8 |] %24
w: Kind words can|ne- ver die,|No, ne- ver|die.|
w: Sweet thoughts can|ne- ver die,|No, ne- ver|die.|
w: Our souls can|ne- ver die,|No, ne- ver|die.|
V:2
 x8 | x8 | x8 | x8 | x8 | x8 | x8 | D8 | x8 | x8 | (C2 E2) x4 | x8 | x8 | x8 | x8 | x8 | x8 | x8 | %18
 x8 | x8 | x8 | x8 | x8 | x8 |] %24
V:3
 [D,A,]4 [D,A,]2 (B,C) | [D,E]2 [D,A,]2 [D,A,]4 | [A,,A,]4 [A,,A,]2 [A,,A,]2 | [D,A,]8 | %4
 [D,A,]4 (G,A,) (B,C) | [D,D]2 [D,A,]2 [D,A,]4 | [A,,F,]4 [A,,A,]2 [A,,E,]2 | [D,F,]8 | %8
 [A,,A,]4 [A,,A,]2 [A,,A,]2 | [D,A,]2 [D,G,]2 [D,F,]4 | [E,A,]4 [E,=G,]2 [F,A,]2 | %11
 [E,B,]2 [E,B,]2 [A,,C]4 | [D,A,]4 [D,A,]2 (B,C) | [D,D]2 [D,A,]2 [D,A,]4 | %14
 [A,,C]4 [A,,C]3 [A,,C] | [D,D]8 | [D,A,]4 (G,A,) (B,C) | [D,D]2 [D,A,]2 [D,A,]4 | %18
 [A,,A,]2 [A,,A,]2 [A,,A,]4 | [D,G,]2 [D,A,]2 [D,A,]4 | [D,A,]4 (G,A,) (B,C) | %21
 [D,D]2 [D,A,]2 [D,A,]4 | [A,C]2 z2 [A,,C] [A,,E]3 | [D,D]8 |] %24
V:4
 x6 D,2 | x8 | x8 | x8 | x4 D,2 D,2 | x8 | x8 | x8 | x8 | x8 | x8 | x8 | x6 D,2 | x8 | x8 | x8 | %16
 x4 D,2 D,2 | x8 | x8 | x8 | x4 D,2 D,2 | x8 | x8 | x8 |] %24

